lg.svg

<svg viewBox="0 0 24 24" xmlns="http://www.w3.org/2000/svg"><path d="M11.9986 24.0014C18.6268 24.0014 24 18.6196 24 12.0014C24 5.37101 18.6268-0.00143687 11.9986-0.00143687C5.37101-0.00143687 0 5.37101 0 12.0014C0 18.6196 5.37101 24.0014 11.9986 24.0014" fill="#c4084f"/><path d="M11.5151 6.72741L11.5151 17.2604L14.8572 17.2604L14.8572 16.3142L12.4814 16.3142L12.4814 6.72741L11.5151 6.72741M8.16428 9.6069C8.95671 9.6069 9.60905 8.96318 9.60905 8.16859C9.60905 7.36969 8.95671 6.72454 8.16428 6.72454C7.37185 6.72454 6.72382 7.36969 6.72382 8.16859C6.72382 8.96318 7.37185 9.6069 8.16428 9.6069M12.4814 1.96276C12.3499 1.95917 12.1221 1.95917 11.9986 1.95917C6.45872 1.95917 1.95198 6.45656 1.95198 11.9993C1.95198 14.6798 2.99946 17.2051 4.8911 19.0996C6.79207 20.9984 9.30875 22.0538 11.9986 22.0538C14.6826 22.0538 17.2029 20.9984 19.1024 19.0996C20.9941 17.2051 22.0358 14.6798 22.0358 11.9993L22.0358 11.5402L14.8666 11.5402L14.8666 12.4727L21.0846 12.4727C21.0846 12.4914 21.0803 12.5941 21.0803 12.615C20.7742 17.3574 16.807 21.1004 11.9986 21.1004C9.57026 21.1004 7.27414 20.1578 5.5578 18.4429C3.83931 16.7244 2.88739 14.4319 2.88739 11.9986C2.88739 9.56738 3.83931 7.27917 5.5578 5.5614C7.27414 3.83931 9.57026 2.89098 11.9986 2.89098C12.1063 2.89098 12.3621 2.89673 12.4814 2.89888L12.4814 1.96276" fill="#ffffff"/></svg>

<svg viewBox="0 0 24 24" xmlns="http://www.w3.org/2000/svg"><path d="M11.999 24.001c6.628 0 12.001-5.381 12.001-12C24 5.371 18.627 0 11.999 0 5.37-.001 0 5.37 0 12c0 6.619 5.371 12 11.999 12" fill="#c4084f"/><path d="M11.515 6.727V17.26h3.342v-.946h-2.376V6.727h-.966m-3.35 2.88c.792 0 1.444-.644 1.444-1.438a1.443 1.443 0 1 0-2.885 0c0 .794.648 1.438 1.44 1.438m4.317-7.644c-.131-.004-.359-.004-.482-.004C6.459 1.96 1.952 6.457 1.952 12a9.993 9.993 0 0 0 2.94 7.1 9.99 9.99 0 0 0 7.107 2.955 9.989 9.989 0 0 0 7.103-2.954 9.988 9.988 0 0 0 2.934-7.1v-.46h-7.17v.933h6.219l-.005.142C20.774 17.357 16.807 21.1 12 21.1a9.063 9.063 0 0 1-6.441-2.657 9.064 9.064 0 0 1-2.67-6.444 9.05 9.05 0 0 1 2.67-6.438 9.046 9.046 0 0 1 6.44-2.67c.108 0 .364.006.483.008v-.936" fill="#fff"/></svg>
